src/standard/joystick-controller.svg

<svg id="acd2f094-0469-46d1-8d36-0a98c2b7d95d" data-name="Icon" xmlns="http://www.w3.org/2000/svg" viewBox="0 0 36 36">
  <title>Joystick icon - Black</title>
<desc>game, video game, play, play station, xbox, switch, buttons, hand, esports, computer, TV, streaming, gaming, objects, controller</desc>
<metadata><?xpacket begin="﻿" id="W5M0MpCehiHzreSzNTczkc9d"?>
<x:xmpmeta xmlns:x="adobe:ns:meta/" x:xmptk="Adobe XMP Core 8.0-c001 1.000000, 0000/00/00-00:00:00        ">
   <rdf:RDF xmlns:rdf="http://www.w3.org/1999/02/22-rdf-syntax-ns#">
      <rdf:Description rdf:about=""
            xmlns:xmp="http://ns.adobe.com/xap/1.0/"
            xmlns:dc="http://purl.org/dc/elements/1.1/"
            xmlns:cq="http://www.day.com/jcr/cq/1.0"
            xmlns:tiff="http://ns.adobe.com/tiff/1.0/">
         <xmp:rhcc-effective-on>2023-12-08T17:35:50.851Z</xmp:rhcc-effective-on>
         <xmp:rhcc-metadata-complete-moderator>pending</xmp:rhcc-metadata-complete-moderator>
         <xmp:rhcc-translation-id>TRA8d5b6ead-dde2-4f08-a0e4-3c13358c59a3</xmp:rhcc-translation-id>
         <xmp:brand-content-type>Icon</xmp:brand-content-type>
         <xmp:CreateDate>2023-12-08T17:35:50.851Z</xmp:CreateDate>
         <xmp:rhcc-effective-on-set-on-upload>true</xmp:rhcc-effective-on-set-on-upload>
         <xmp:rhcc-metadata-complete-uploader>pending</xmp:rhcc-metadata-complete-uploader>
         <xmp:rhcc-file-last-modified>2023-12-08T17:36:31.901Z</xmp:rhcc-file-last-modified>
         <xmp:rhcc-audience>rhcc-audience:internal</xmp:rhcc-audience>
         <xmp:rhcc-rights-restricted>no</xmp:rhcc-rights-restricted>
         <xmp:brand-content-subtype>Icon</xmp:brand-content-subtype>
         <xmp:rhcc-derivative-id>DER8d5b6ead-dde2-4f08-a0e4-3c13358c59a3</xmp:rhcc-derivative-id>
         <xmp:brand-logo-color>Black</xmp:brand-logo-color>
         <xmp:rhcc-notify-portal-subscribers-on-change>yes</xmp:rhcc-notify-portal-subscribers-on-change>
         <dc:format>image/svg+xml</dc:format>
         <dc:modified>2024-02-09T20:31:10.359Z</dc:modified>
         <dc:title>
            <rdf:Alt>
               <rdf:li xml:lang="x-default">Joystick icon - Black</rdf:li>
            </rdf:Alt>
         </dc:title>
         <dc:description>
            <rdf:Alt>
               <rdf:li xml:lang="x-default">game, video game, play, play station, xbox, switch, buttons, hand, esports, computer, TV, streaming, gaming, objects, controller</rdf:li>
            </rdf:Alt>
         </dc:description>
         <cq:lastReplicationAction_scene7>Activate</cq:lastReplicationAction_scene7>
         <cq:lastReplicationAction_publish>Activate</cq:lastReplicationAction_publish>
         <cq:lastReplicated_publish>2024-02-09T22:18:06.966Z</cq:lastReplicated_publish>
         <cq:lastReplicatedBy>workflow-process-service</cq:lastReplicatedBy>
         <cq:lastReplicationAction>Activate</cq:lastReplicationAction>
         <cq:lastReplicatedBy_publish>workflow-process-service</cq:lastReplicatedBy_publish>
         <cq:isDelivered>true</cq:isDelivered>
         <cq:lastReplicated>2024-02-09T22:18:06.966Z</cq:lastReplicated>
         <cq:lastReplicatedBy_scene7>workflow-process-service</cq:lastReplicatedBy_scene7>
         <cq:lastReplicated_scene7>2024-02-09T22:18:06.966Z</cq:lastReplicated_scene7>
         <tiff:ImageLength>36</tiff:ImageLength>
         <tiff:ImageWidth>36</tiff:ImageWidth>
      </rdf:Description>
   </rdf:RDF>
</x:xmpmeta>
                                                                                                    
                                                                                                    
                                                                                                    
                                                                                                    
                                                                                                    
                                                                                                    
                                                                                                    
                                                                                                    
                                                                                                    
                                                                                                    
                                 
<?xpacket end="w"?></metadata>
<g>
    <path d="M31,23.375H14.7717l2.0976-9.8672a3.64,3.64,0,1,0-3.1973-.7524l-2.2572,10.62H5A.6253.6253,0,0,0,4.375,24v5A.6253.6253,0,0,0,5,29.625H31A.6253.6253,0,0,0,31.625,29V24A.6253.6253,0,0,0,31,23.375ZM16,7.625A2.375,2.375,0,1,1,13.625,10,2.3777,2.3777,0,0,1,16,7.625Zm-1.189,5.7834a3.5811,3.5811,0,0,0,.7646.1737L13.4938,23.375h-.8011ZM30.375,28.375H5.625v-3.75h24.75Z"/>
    <path d="M23,22.625h3a.625.625,0,0,0,0-1.25H23a.625.625,0,0,0,0,1.25Z"/>
  </g>
</svg>

<svg xmlns="http://www.w3.org/2000/svg" viewBox="0 0 36 36">
  <path d="M31 23.375H14.772l2.097-9.867a3.64 3.64 0 1 0-3.197-.753l-2.257 10.62H5a.625.625 0 0 0-.625.625v5a.625.625 0 0 0 .625.625h26a.625.625 0 0 0 .625-.625v-5a.625.625 0 0 0-.625-.625ZM16 7.625A2.375 2.375 0 1 1 13.625 10 2.378 2.378 0 0 1 16 7.625Zm-1.189 5.783a3.581 3.581 0 0 0 .765.174l-2.082 9.793h-.801Zm15.564 14.967H5.625v-3.75h24.75Z"/>
  <path d="M23 22.625h3a.625.625 0 0 0 0-1.25h-3a.625.625 0 0 0 0 1.25Z"/>
</svg>
